X:1
T:What a Savior Is Mine!
T:What a Savior Is Mine!
T:Leila Naylor Morris
T:Leila Naylor Morris, 1911
T:Public Domain Courtesy of the Cyber Hymnal™
C:Leila Naylor Morris
Z:Public Domain
Z:Courtesy of the Cyber Hymnal™
%%score 1 ( 2 3 )
L:1/8
Q:1/4=90
M:6/8
K:Ab
V:1 treble 
V:2 bass 
V:3 bass 
V:1
 [Ee]>[Ec][Ec] [Ec][EB][EA] | [FA]>[DF][DA] [CE]3 | [CA]>[CA][CA] | [=Dc][DB][DA] | %4
w: 1.~Beth- le- hem, Cal- va- ry,|Ol- i- vet, tell,|Oh, what a|Sav- ior is|
w: 2.~There, on the cross, where He|died for my sin,|Oh, what a|Sav- ior is|
w: 3.~Ris- ing a- gain in His|in- fi- nite grace,|Oh, what a|Sav- ior is|
w: 4.~Lift- ing my bur- dens, re-|liev- ing my care,|Oh, what a|Sav- ior is|
 [EB]3- [EBe]2 z | [Ee]>[Ec][Ec] [Ec][EB][EA] | [FA]>[DF][DA] [CE]3 | [CA]>[CA][CA] [Ec][Ec][DB] | %8
w: mine! *|Mount- ain and plain with His|prais- es shall swell,|Oh, what a Sav- ior is|
w: mine! *|Giv- ing His life a poor|wan- d’rer to win,|Oh, what a Sav- ior is|
w: mine! *|Shed- ding up- on me the|light of His face,|Oh, what a Sav- ior is|
w: mine! *|Giv- ing me cour- age to|do and to dare,|Oh, what a Sav- ior is|
 [CA]3- [CA]2 z ||"^Refrain" [Ee]>[Ee][Ee] [Ec]2 [_GA] | [FA]>[FA][FA] [DF]2 [CE] | %11
w: mine! *|||
w: mine! *|||
w: mine! *|||
w: mine! *|||
 [CA]>[CA][CA] [=Dc][DB][DA] | ([E-B]3 [Ee]2) z | [Ee]>[Ee][Ee] | [Ec][EB][EA] | %15
w: ||||
w: ||||
w: ||||
w: ||||
 [FA]>[FB][DA] [DF]>[CE][CE] | [CA]>[CA][=DA] [Ec][Ec][_DB] | [CA]3- [CA]2 z |] %18
w: |||
w: |||
w: |||
w: |||
V:2
 [A,,C]>[A,,A,][A,,A,] [A,,A,][B,,G,][C,A,] | [D,D]>[D,A,][F,A,] A,3 | [F,A,]>[F,A,][F,A,] | %3
w: ~ ~ ~ ~ ~ ~|~ ~ ~ ~|~ ~ ~|
 [B,,A,][B,,A,][B,,B,] | [E,G,]3- [E,G,D]2 z | [A,,C]>[A,,A,][A,,A,] [A,,A,][B,,G,][C,A,] | %6
w: ~ ~ ~|~ *|~ ~ ~ ~ ~ ~|
 [D,D]>[D,A,][F,A,] A,3 | [F,A,]>[F,A,][F,A,] [E,A,][E,A,][E,G,] | [A,,A,]3- [A,,A,]2 z || %9
w: ~ ~ ~ ~|~ ~ ~ ~ ~ ~|~ *|
 [A,C]>[A,C][A,C] A,2 [C,A,] | [D,D]>[D,D][D,D] A,2 A, | %11
w: Oh, what a Sav- ior!|Oh, what a Sav- ior!|
 [F,A,]>[F,A,][F,A,] [B,,A,][B,,A,][B,,B,] | ([E,-G,]3 [E,D]2) z | [A,C]>[A,C][A,C] | %14
w: Oh, what a Sav- ior is|mine! *|Un- to the|
 [A,,B,][B,,G,][C,A,] | [D,D]>[D,D][F,A,] A,>A,A, | [F,A,]>[F,A,][F,A,] [E,A,][E,A,][E,G,] | %17
w: ut- ter- most,|won- der- ful, glo- ri- ous!|Oh, what a Sav- ior is|
 [A,,A,]3- [A,,A,]2 x |] %18
w: mine! *|
V:3
 x6 | x3 A,3 | x3 | x3 | x6 | x6 | x3 A,3 | x6 | x6 || x3 A,2 x | x3 A,2 A, | x6 | x6 | x3 | x3 | %15
 x3 A,>A,A, | x6 | x6 |] %18

